48x48/apps/cx.ring.Ring.svg

<svg xmlns="http://www.w3.org/2000/svg" width="48" height="48" version="1.1">
 <path style="opacity:0.2" d="m 8.0990256,12.401392 -3.0152602,5.19625 C 3.073592,21.061809 37.890802,41.062771 39.900975,37.598605 l 3.01526,-5.19625 C 44.926409,28.938188 10.1092,8.9372256 8.0990256,12.401392"/>
 <path style="fill:#009688" d="m 8.0990256,11.401393 -3.0152602,5.19625 C 3.073592,20.06181 37.890802,40.062772 39.900975,36.598606 l 3.01526,-5.19625 C 44.926409,27.938189 10.1092,7.9372271 8.0990256,11.401393"/>
 <path style="fill:#f4f4f7;opacity:0.1" d="M 9.4726562 11.013672 C 8.7648932 10.958925 8.2880632 11.077578 8.0996094 11.402344 L 5.0839844 16.597656 C 4.9524609 16.824313 4.9861065 17.125383 5.1503906 17.482422 L 8.0996094 12.402344 C 9.9782602 9.1648341 40.503016 26.417726 42.849609 31.517578 L 42.916016 31.402344 C 44.737736 28.262942 16.314365 11.542891 9.4726562 11.013672 z"/>
 <path style="opacity:0.2" d="m 39.900975,12.401392 3.01526,5.19625 C 44.926408,21.061809 10.109198,41.062771 8.0990255,37.598605 l -3.01526,-5.19625 C 3.0735915,28.938188 37.8908,8.9372256 39.900975,12.401392"/>
 <path style="fill:#601ab8" d="m 39.900975,11.401393 3.01526,5.19625 C 44.926408,20.06181 10.109198,40.062772 8.0990255,36.598606 l -3.01526,-5.19625 C 3.0735915,27.938189 37.8908,7.9372271 39.900975,11.401393"/>
 <path style="fill:#f4f4f7;opacity:0.1" d="M 38.527344 11.013672 C 31.685634 11.542891 3.2622642 28.262942 5.0839844 31.402344 L 5.1503906 31.517578 C 7.4969843 26.417726 38.021739 9.1648341 39.900391 12.402344 L 42.849609 17.482422 C 43.013893 17.125383 43.047539 16.824313 42.916016 16.597656 L 39.900391 11.402344 C 39.711937 11.077578 39.235107 10.958925 38.527344 11.013672 z"/>
 <path style="opacity:0.2" d="m 26.956252,5.0131111 -5.999644,-0.013113 c -3.999764,-0.00874 -3.912617,39.9781399 0.08714,39.9868809 l 5.999645,0.01312 c 3.999763,0.0088 3.912618,-39.9781388 -0.08714,-39.9868815"/>
 <path style="fill:#2176f3" d="M 26.956252,4.0131126 20.956608,3.9999996 C 16.956844,3.9912596 17.043991,43.978139 21.043748,43.98688 L 27.043393,44 c 3.999763,0.0088 3.912618,-39.9781383 -0.08714,-39.986881"/>
 <path style="fill:#f4f4f7;opacity:0.2" d="M 20.957031 4 C 18.929272 3.9955691 17.955508 14.268181 18.005859 24.402344 C 18.022896 14.605182 18.996303 4.9957156 20.957031 5 L 26.957031 5.0136719 C 28.929033 5.0179823 29.945174 14.742135 29.994141 24.597656 C 30.011858 14.409205 28.996064 4.0181288 26.957031 4.0136719 L 20.957031 4 z"/>
</svg>

<svg xmlns="http://www.w3.org/2000/svg" width="48" height="48"><path style="opacity:.2" d="m8.099 12.401-3.015 5.197c-2.01 3.464 32.807 23.465 34.817 20l3.015-5.196c2.01-3.464-32.807-23.465-34.817-20"/><path style="fill:#009688" d="m8.099 11.401-3.015 5.197c-2.01 3.464 32.807 23.465 34.817 20l3.015-5.196c2.01-3.464-32.807-23.465-34.817-20"/><path style="fill:#f4f4f7;opacity:.1" d="M9.473 11.014c-.708-.055-1.185.064-1.373.388l-3.016 5.196c-.132.226-.098.527.066.884l2.95-5.08c1.878-3.237 32.403 14.016 34.75 19.116l.066-.116c1.822-3.14-26.602-19.86-33.443-20.388z"/><path style="opacity:.2" d="m39.901 12.401 3.015 5.197c2.01 3.464-32.807 23.465-34.817 20l-3.015-5.196c-2.01-3.464 32.807-23.465 34.817-20"/><path style="fill:#601ab8" d="m39.901 11.401 3.015 5.197c2.01 3.464-32.807 23.465-34.817 20l-3.015-5.196c-2.01-3.464 32.807-23.465 34.817-20"/><path style="fill:#f4f4f7;opacity:.1" d="M38.527 11.014c-6.841.529-35.265 17.249-33.443 20.388l.066.116c2.347-5.1 32.872-22.353 34.75-19.116l2.95 5.08c.164-.357.198-.658.066-.884L39.9 11.402c-.188-.324-.665-.443-1.373-.388z"/><path style="opacity:.2" d="m26.956 5.013-6-.013c-4-.009-3.912 39.978.088 39.987l6 .013c4 .009 3.912-39.978-.088-39.987"/><path style="fill:#2176f3" d="m26.956 4.013-6-.013c-4-.009-3.912 39.978.088 39.987l6 .013c4 .009 3.912-39.978-.088-39.987"/><path style="fill:#f4f4f7;opacity:.2" d="M20.957 4c-2.028-.004-3.001 10.268-2.951 20.402.017-9.797.99-19.406 2.951-19.402l6 .014c1.972.004 2.988 9.728 3.037 19.584.018-10.189-.998-20.58-3.037-20.584l-6-.014z"/></svg>
